;FLAVOR:Marlin                 ; Прошивка принтера: Marlin
;TIME:2207                     ; Время печати: 2207 секунд (36.78 минут)
;Filament used: 1.20354m       ; Расход филамента: ~1.2 метра
;Layer height: 0.2             ; Толщина слоя: 0.2 мм
;MINX:198.206                  ; Минимальная X-координата модели
;MINY:188.206                  ; Минимальная Y-координата модели
;MINZ:0.24                     ; Начальная высота печати (Z)
;MAXX:251.794                  ; Максимальная X-координата
;MAXY:241.794                  ; Максимальная Y-координата
;MAXZ:11.09                    ; Полная высота модели
;Generated with Cura_SteamEngine 5.4.0  ; Создано в Cura 5.4.0

M140 S80                       ; Нагрев стола до 80°C (без ожидания)
M105                           ; Запрос текущих температур
M190 S80                       ; Ожидание нагрева стола до 80°C
M104 S200                      ; Нагрев сопла до 200°C (без ожидания)
M105                           ; Повторный запрос температур
M109 S200                      ; Ожидание нагрева сопла до 200°C

M82 ;absolute extrusion mode   ; Абсолютный режим экструзии

G28 ;Home                      ; Автокалибровка (возврат в нулевые позиции)
G1 Z15.0 F6000                 ; Подъем Z на 15 мм (6000 мм/мин)

; Подготовка экструдера
G92 E0                         ; Обнуление счетчика экструдера
G1 F200 E3                     ; Проталкивание 3 мм филамента (200 мм/мин)
G92 E0                         ; Повторный сброс (дубликат)
G1 F1500 E-6.5                 ; Откат филамента на 6.5 мм

;LAYER_COUNT:50                ; Общее количество слоев: 50
;LAYER:-6                      ; Начальный слой (специальные параметры)
M107                           ; Отключение охлаждающего вентилятора

G0 F7200 X207.209 Y197.73 Z0.24  ; Перемещение к точке начала печати (7200 мм/мин)
;TYPE:SUPPORT-INTERFACE
G1 F1500 E0
G1 F1125 X207.991 Y196.967 E0.04361
G1 X208.801 Y196.282 E0.08595
G1 X209.469 Y195.787 E0.11913
G1 X216.497 Y190.888 E0.46106
G1 X217.446 Y190.274 E0.50617
G1 X218.48 Y189.717 E0.55304
G1 X219.279 Y189.353 E0.58809
G1 X220.312 Y188.966 E0.63212
G1 X221.34 Y188.663 E0.67489
G1 X222.492 Y188.416 E0.72191
G1 X223.648 Y188.266 E0.76844
G1 X224.734 Y188.206 E0.81185
G1 X225.807 Y188.226 E0.85468
G1 X226.881 Y188.324 E0.89773
G1 X227.927 Y188.495 E0.94003
G1 X228.827 Y188.706 E0.97692
G1 X229.859 Y189.023 E1.02001
G1 X230.957 Y189.453 E1.06708
G1 X231.844 Y189.882 E1.1064
G1 X232.806 Y190.428 E1.15055
G1 X233.432 Y190.84 E1.18046
G1 X240.475 Y195.747 E1.52306
G1 X241.462 Y196.493 E1.57244
G1 X242.27 Y197.209 E1.61553
G1 X243.033 Y197.991 E1.65914
G1 X243.718 Y198.801 E1.70148
G1 X244.213 Y199.469 E1.73466
G1 X249.111 Y206.495 E2.0765
G1 X249.726 Y207.447 E2.12173
G1 X250.283 Y208.48 E2.16857
G1 X250.647 Y209.279 E2.20362
G1 X251.034 Y210.312 E2.24765
G1 X251.337 Y211.34 E2.29042
G1 X251.585 Y212.494 E2.33753
G1 X251.734 Y213.644 E2.38381
G1 X251.794 Y214.732 E2.4273
G1 X251.774 Y215.807 E2.47022
G1 X251.676 Y216.881 E2.51326
G1 X251.505 Y217.927 E2.55556
G1 X251.294 Y218.827 E2.59246
G1 X250.977 Y219.859 E2.63555
G1 X250.545 Y220.962 E2.68283
G1 X250.041 Y221.991 E2.72856
G1 X249.572 Y222.806 E2.76609
G1 X249.16 Y223.432 E2.796
G1 X244.252 Y230.476 E3.13865
G1 X243.507 Y231.462 E3.18798
G1 X242.791 Y232.27 E3.23107
G1 X242.009 Y233.033 E3.27467
G1 X241.199 Y233.718 E3.31701
G1 X240.532 Y234.212 E3.35014
G1 X233.505 Y239.111 E3.69203
G1 X232.553 Y239.726 E3.73727
G1 X231.52 Y240.283 E3.78411
G1 X230.721 Y240.647 E3.81915
G1 X229.688 Y241.034 E3.86318
G1 X228.66 Y241.337 E3.90595
G1 X227.508 Y241.584 E3.95298
G1 X226.352 Y241.734 E3.9995
G1 X225.266 Y241.794 E4.04291
G1 X224.193 Y241.774 E4.08575
G1 X223.119 Y241.676 E4.12879
G1 X222.073 Y241.505 E4.17109
G1 X221.173 Y241.294 E4.20799
G1 X220.141 Y240.977 E4.25108
G1 X219.044 Y240.548 E4.29809
G1 X218.156 Y240.118 E4.33747
G1 X217.194 Y239.572 E4.38162
G1 X216.568 Y239.16 E4.41153
G1 X209.515 Y234.246 E4.75461
G1 X208.536 Y233.505 E4.80362
G1 X207.728 Y232.789 E4.84671
G1 X206.965 Y232.007 E4.89031
G1 X206.28 Y231.197 E4.93265
G1 X205.78 Y230.522 E4.96618
G1 X200.887 Y223.502 E5.30771
G1 X200.229 Y222.471 E5.35652
G1 X199.717 Y221.52 E5.39963
G1 X199.353 Y220.721 E5.43468
G1 X198.966 Y219.688 E5.4787
G1 X198.663 Y218.66 E5.52148
G1 X198.416 Y217.508 E5.5685
G1 X198.266 Y216.352 E5.61503
G1 X198.206 Y215.268 E5.65836
G1 X198.226 Y214.193 E5.70127
G1 X198.324 Y213.119 E5.74431
G1 X198.495 Y212.073 E5.78662
G1 X198.706 Y211.173 E5.82351
G1 X199.023 Y210.141 E5.8666
G1 X199.455 Y209.038 E5.91388
G1 X199.959 Y208.009 E5.95961
G1 X200.428 Y207.194 E5.99714
G1 X200.84 Y206.568 E6.02705
G1 X205.754 Y199.515 E6.37014
G1 X206.493 Y198.538 E6.41903
G1 X207.209 Y197.73 E6.46212
G0 F7200 X207.149 Y198.098
G1 F1125 X241.904 Y232.853 E8.42384
G0 F7200 X242.477 Y232.295
G1 F1125 X207.706 Y197.523 E10.3865
G0 F7200 X208.289 Y196.975
G1 F1125 X243.021 Y231.707 E12.34692
G0 F7200 X243.536 Y231.09
G1 F1125 X208.902 Y196.457 E14.30179
G0 F7200 X209.551 Y195.974
G1 F1125 X244.023 Y230.446 E16.24753
G0 F7200 X244.49 Y229.782
G1 F1125 X210.217 Y195.509 E18.18205
G0 F7200 X210.883 Y195.044
G1 F1125 X244.955 Y229.116 E20.10522
G0 F7200 X245.419 Y228.449
G1 F1125 X211.55 Y194.58 E22.01693
G0 F7200 X212.216 Y194.114
G1 F1125 X245.884 Y227.782 E23.9173
G0 F7200 X246.348 Y227.115
G1 F1125 X212.883 Y193.65 E25.80621
G0 F7200 X213.55 Y193.185
G1 F1125 X246.813 Y226.448 E27.68372
G0 F7200 X247.278 Y225.782
G1 F1125 X214.217 Y192.721 E29.54982
G0 F7200 X214.884 Y192.256
G1 F1125 X247.742 Y225.115 E31.4045
G0 F7200 X248.207 Y224.448
G1 F1125 X215.55 Y191.792 E33.24777
G0 F7200 X216.217 Y191.327
G1 F1125 X248.671 Y223.781 E35.07962
G0 F7200 X249.132 Y223.11
G1 F1125 X216.892 Y190.87 E36.89938
G0 F7200 X217.58 Y190.428
G1 F1125 X249.566 Y222.414 E38.70481
G0 F7200 X249.968 Y221.684
G1 F1125 X218.316 Y190.032 E40.49139
G0 F7200 X219.079 Y189.663
G1 F1125 X250.34 Y220.924 E42.25589
G0 F7200 X250.662 Y220.115
G1 F1125 X219.886 Y189.339 E43.99302
G0 F7200 X220.729 Y189.051
G1 F1125 X250.948 Y219.27 E45.69871
G0 F7200 X251.192 Y218.382
G1 F1125 X221.617 Y188.808 E47.36803
G0 F7200 X222.551 Y188.61
G1 F1125 X251.381 Y217.44 E48.99532
G0 F7200 X251.514 Y216.441
G1 F1125 X223.552 Y188.48 E50.57358
G0 F7200 X224.616 Y188.412
G1 F1125 X251.581 Y215.377 E52.0956
G0 F7200 X251.565 Y214.23
G1 F1125 X225.761 Y188.426 E53.55209
G0 F7200 X227.015 Y188.549
G1 F1125 X251.446 Y212.979 E54.93106
G0 F7200 X251.185 Y211.587
G1 F1125 X228.412 Y188.814 E56.21646
G0 F7200 X230.037 Y189.308
G1 F1125 X250.687 Y209.957 E57.38201
G0 F7200 X249.721 Y207.861
G1 F1125 X232.143 Y190.282 E58.37422
G0 F7200 X235.557 Y192.565
G1 F1125 X247.44 Y204.448 E59.04494
G0 F7200 X244.835 Y200.711
G1 F1125 X239.288 Y195.165 E59.35801
G0 F7200 X206.62 Y198.7
G1 F1125 X241.293 Y233.374 E61.31513
G0 F7200 X240.657 Y233.869
G1 F1125 X206.132 Y199.344 E63.26388
G0 F7200 X205.657 Y200
G1 F1125 X239.996 Y234.34 E65.20214
G0 F7200 X239.33 Y234.805
G1 F1125 X205.193 Y200.667 E67.12901
G0 F7200 X204.728 Y201.334
G1 F1125 X238.664 Y235.269 E69.04448
G0 F7200 X237.997 Y235.734
G1 F1125 X204.264 Y202.001 E70.94852
G0 F7200 X203.799 Y202.668
G1 F1125 X237.33 Y236.199 E72.84115
G0 F7200 X236.664 Y236.664
G1 F1125 X203.334 Y203.334 E74.72244
G0 F7200 X202.87 Y204.001
G1 F1125 X235.997 Y237.128 E76.59227
G0 F7200 X235.33 Y237.593
G1 F1125 X202.405 Y204.668 E78.4507
G0 F7200 X201.941 Y205.335
G1 F1125 X234.664 Y238.058 E80.29773
G0 F7200 X233.997 Y238.523
G1 F1125 X201.476 Y206.002 E82.13335
G0 F7200 X201.012 Y206.668
G1 F1125 X233.328 Y238.985 E83.95744
G0 F7200 X232.64 Y239.429
G1 F1125 X200.565 Y207.353 E85.76792
G0 F7200 X200.152 Y208.072
G1 F1125 X231.919 Y239.839 E87.56098
G0 F7200 X231.17 Y240.221
G1 F1125 X199.778 Y208.829 E89.33288
G0 F7200 X199.439 Y209.621
G1 F1125 X230.378 Y240.56 E91.07921
G0 F7200 X229.55 Y240.864
G1 F1125 X199.136 Y210.449 E92.79594
G0 F7200 X198.875 Y211.32
G1 F1125 X228.677 Y241.122 E94.47809
G0 F7200 X227.749 Y241.326
G1 F1125 X198.668 Y212.245 E96.11955
G0 F7200 X198.515 Y213.223
G1 F1125 X226.769 Y241.476 E97.7143
G0 F7200 X225.728 Y241.567
G1 F1125 X198.424 Y214.263 E99.25546
G0 F7200 X198.412 Y215.382
G1 F1125 X224.61 Y241.58 E100.73418
G0 F7200 X223.396 Y241.498
G1 F1125 X198.499 Y216.601 E102.13948
G0 F7200 X198.714 Y217.947
G1 F1125 X222.064 Y241.297 E103.45745
G0 F7200 X220.517 Y240.882
G1 F1125 X199.112 Y219.476 E104.66567
G0 F7200 X199.863 Y221.359
G1 F1125 X218.627 Y240.123 E105.72479
G0 F7200 X215.644 Y238.271
G1 F1125 X201.719 Y224.347 E106.51075
G0 F7200 X204.324 Y228.082
G1 F1125 X211.913 Y235.672 E106.93914
G0 F600 X211.913 Y235.672 Z0.54
G0 F7200 X239.953 Y234.373
;TIME_ELAPSED:150.196161
;LAYER:-5
;TYPE:SUPPORT
G1 F1125 X244.361 Y229.965 E107.25014
G0 F7200 X240.411 Y234.054
G1 F1125 X241.08 Y233.556 E107.29175
G1 X241.871 Y232.887 E107.34344
G1 X242.652 Y232.124 E107.39791
G1 X243.353 Y231.329 E107.45079
G1 X244.016 Y230.46 E107.50532
G1 X246.319 Y227.159 E107.70613
G1 X237.155 Y236.323 E108.3527
G1 X234.355 Y238.274 E108.52296
G1 X248.275 Y224.354 E109.50509
G1 X248.948 Y223.39 E109.56374
G1 X249.342 Y222.793 E109.59943
G1 X249.834 Y221.947 E109.64826
G1 X231.965 Y239.815 E110.90897
G1 X231.511 Y240.066 E110.93486
G1 X230.359 Y240.573 E110.99765
G1 X250.561 Y220.371 E112.42301
G1 X250.785 Y219.798 E112.4537
G1 X251.007 Y219.077 E112.49134
G1 X229.079 Y241.005 E114.03848
G1 X228.616 Y241.141 E114.06255
G1 X227.951 Y241.284 E114.09649
G1 X251.294 Y217.941 E115.74346
G1 X251.466 Y216.92 E115.79512
G1 X226.928 Y241.458 E117.52641
G1 X226.512 Y241.517 E117.54737
G1 X225.985 Y241.553 E117.57372
G1 X251.57 Y215.968 E119.37888
G1 X251.586 Y215.104 E119.422
G1 X225.098 Y241.591 E121.29083
G1 X224.267 Y241.574 E121.3323
G1 X251.569 Y214.272 E123.2586
G1 X251.515 Y213.477 E123.29836
G1 X223.485 Y241.508 E125.27606
G1 X222.735 Y241.409 E125.3138
G1 X251.41 Y212.734 E127.33698
G1 X251.278 Y212.018 E127.3733
G1 X222.012 Y241.283 E129.43814
G1 X221.325 Y241.122 E129.47335
G1 X251.123 Y211.324 E131.57575
G1 X250.93 Y210.669 E131.60982
G1 X220.669 Y240.929 E133.74486
G1 X220.031 Y240.719 E133.77837
G1 X250.717 Y210.033 E135.94344
G1 X250.49 Y209.411 E135.97647
G1 X219.42 Y240.481 E138.16863
G1 X218.831 Y240.222 E138.20073
G1 X250.22 Y208.833 E140.41539
G1 X249.941 Y208.263 E140.44705
G1 X218.262 Y239.942 E142.68218
G1 X217.716 Y239.639 E142.71333
G1 X249.64 Y207.716 E144.96571
G1 X249.321 Y207.186 E144.99657
G1 X217.18 Y239.328 E147.26432
G1 X216.67 Y238.989 E147.29488
G1 X248.988 Y206.671 E149.57509
G1 X248.64 Y206.17 E149.60552
G1 X216.169 Y238.641 E151.89652
G1 X215.669 Y238.292 E151.92694
G1 X248.292 Y205.67 E154.22864
G1 X247.943 Y205.17 E154.25906
G1 X215.169 Y237.944 E156.57144
G1 X214.669 Y237.595 E156.60186
G1 X247.594 Y204.67 E158.9249
G1 X247.246 Y204.17 E158.95529
G1 X214.169 Y237.247 E161.28905
G1 X213.669 Y236.898 E161.31947
G1 X246.897 Y203.67 E163.66389
G1 X246.549 Y203.17 E163.69428
G1 X213.17 Y236.549 E166.04935
G1 X212.67 Y236.201 E166.07974
G1 X246.2 Y202.67 E168.4455
G1 X245.851 Y202.171 E168.47588
G1 X212.17 Y235.852 E170.85225
G1 X211.67 Y235.504 E170.88265
G1 X245.503 Y201.67 E173.26978
G1 X245.155 Y201.17 E173.30018
G1 X211.169 Y235.156 E175.69807
G1 X210.669 Y234.807 E175.72849
G1 X244.806 Y200.67 E178.13704
G1 X244.458 Y200.17 E178.16743
G1 X210.169 Y234.458 E180.58667
G1 X209.669 Y234.11 E180.61707
G1 X244.109 Y199.67 E183.04699
G1 X243.75 Y199.181 E183.07726
G1 X209.186 Y233.745 E185.51594
G1 X208.703 Y233.379 E185.54617
G1 X243.376 Y198.706 E187.99254
G1 X242.987 Y198.247 E188.02255
G1 X208.25 Y232.983 E190.4734
G1 X207.805 Y232.58 E190.50335
G1 X242.575 Y197.81 E192.95656
G1 X242.156 Y197.381 E192.98648
G1 X207.386 Y232.15 E195.43966
G1 X206.977 Y231.711 E195.46959
G1 X241.709 Y196.979 E197.92012
G1 X241.254 Y196.586 E197.95012
G1 X206.589 Y231.251 E200.39592
G1 X206.217 Y230.774 E200.4261
G1 X240.771 Y196.22 E202.86407
G1 X240.284 Y195.859 E202.89432
G1 X205.857 Y230.285 E205.32329
G1 X205.509 Y229.784 E205.35372
G1 X239.784 Y195.51 E207.77198
G1 X239.284 Y195.162 E207.80237
G1 X205.161 Y229.285 E210.20993
G1 X204.812 Y228.785 E210.24035
G1 X238.784 Y194.813 E212.63726
G1 X238.284 Y194.464 E212.66768
G1 X204.464 Y228.285 E215.0539
G1 X204.116 Y227.784 E215.08433
G1 X237.784 Y194.116 E217.45979
G1 X237.284 Y193.767 E217.49021
G1 X203.767 Y227.284 E219.85502
G1 X203.419 Y226.784 E219.88541
G1 X236.785 Y193.418 E222.23956
G1 X236.285 Y193.069 E222.26998
G1 X203.07 Y226.284 E224.61348
G1 X202.722 Y225.784 E224.64387
G1 X235.785 Y192.721 E226.97664
G1 X235.285 Y192.372 E227.00707
G1 X202.373 Y225.284 E229.32918
G1 X202.025 Y224.784 E229.35958
G1 X234.785 Y192.024 E231.67097
G1 X234.285 Y191.675 E231.70139
G1 X201.676 Y224.284 E234.00213
G1 X201.328 Y223.783 E234.03257
G1 X233.785 Y191.326 E236.32258
G1 X233.283 Y190.98 E236.353
G1 X200.98 Y223.283 E238.63215
G1 X200.647 Y222.767 E238.66279
G1 X232.772 Y190.643 E240.92935
G1 X232.235 Y190.331 E240.96033
G1 X200.332 Y222.234 E243.21126
G1 X200.031 Y221.687 E243.24241
G1 X231.686 Y190.032 E245.47584
G1 X231.117 Y189.752 E245.50748
G1 X199.755 Y221.114 E247.72024
G1 X199.493 Y220.528 E247.75226
G1 X230.523 Y189.497 E249.94163
G1 X229.913 Y189.259 E249.9743
G1 X199.261 Y219.911 E252.13696
G1 X199.051 Y219.272 E252.17052
G1 X229.272 Y189.052 E254.30274
G1 X228.622 Y188.852 E254.33667
G1 X198.859 Y218.616 E256.43665
G1 X198.709 Y217.918 E256.47226
G1 X227.926 Y188.7 E258.53372
G1 X227.199 Y188.579 E258.57049
G1 X198.579 Y217.199 E260.58978
G1 X198.477 Y216.452 E260.62739
G1 X226.445 Y188.484 E262.60069
G1 X225.667 Y188.413 E262.63966
G1 X198.429 Y215.652 E264.56149
G1 X198.414 Y214.819 E264.60305
G1 X224.843 Y188.389 E266.4678
G1 X223.932 Y188.451 E266.51335
G1 X198.45 Y213.934 E268.31128
G1 X198.535 Y213 E268.35807
G1 X222.983 Y188.552 E270.08301
G1 X222.435 Y188.63 E270.11062
G1 X221.953 Y188.734 E270.13522
G1 X198.728 Y211.959 E271.77387
G1 X198.901 Y211.219 E271.81179
G1 X199.025 Y210.813 E271.83297
G1 X220.813 Y189.025 E273.37023
G1 X220.381 Y189.153 E273.39271
G1 X219.517 Y189.472 E273.43866
G1 X199.485 Y209.505 E274.85206
G1 X199.64 Y209.108 E274.87332
G1 X200.228 Y207.913 E274.93976
G1 X217.867 Y190.274 E276.18429
G1 X217.469 Y190.493 E276.20696
G1 X216.678 Y191.005 E276.25396
G1 X215.391 Y191.901 E276.3322
G1 X201.894 Y205.398 E277.28449
G1 X203.847 Y202.597 E277.45484
G1 X212.593 Y193.851 E278.07192
G1 X209.794 Y195.802 E278.24214
G1 X205.801 Y199.795 E278.52387
G1 X205.911 Y199.636 E278.53351
G1 X206.644 Y198.669 E278.59405
G1 X207.345 Y197.876 E278.64686
G1 X208.126 Y197.113 E278.70133
G1 X208.917 Y196.444 E278.75301
G1 X209.588 Y195.945 E278.79473
G0 F600 X209.588 Y195.945 Z0.74
G0 F7200 X242.886 Y198.127
;TIME_ELAPSED:334.413224
;LAYER:-4
;TYPE:SUPPORT-INTERFACE
G1 F1500 X242.123 Y197.346 E278.81289
G1 X241.366 Y196.677 E278.82969
G1 X243.413 Y198.724 E278.87783
G1 X244.186 Y199.78 E278.8996
G1 X240.226 Y195.819 E278.99274
G1 X239.29 Y195.167 E279.01171
G1 X244.837 Y200.713 E279.14216
G1 X245.488 Y201.647 E279.16109
G1 X238.355 Y194.515 E279.32883
G1 X237.42 Y193.862 E279.3478
G1 X246.138 Y202.581 E279.55285
G1 X246.789 Y203.514 E279.57177
G1 X236.485 Y193.21 E279.8141
G1 X235.549 Y192.557 E279.83308
G1 X247.44 Y204.448 E280.11274
G1 X248.091 Y205.381 E280.13166
G1 X234.615 Y191.905 E280.44859
G1 X233.679 Y191.253 E280.46756
G1 X248.796 Y206.37 E280.82309
G1 X249.308 Y207.164 E280.8388
G1 X232.81 Y190.667 E281.2268
G1 X232.134 Y190.273 E281.23981
G1 X249.719 Y207.858 E281.65338
G1 X250.066 Y208.489 E281.66536
